X: 32682
T: Polca Mhary Keane
R: polka
M: 2/4
K: Dmajor
|:FA BA|AF D>E|FA Bd|fe ed|
ed/e/ fe|df Bd|FA B/c/d|1 FD DE:|2 FD DF/A/||
|:~B2 BA|B/c/d ed|FA c/B/A|FD E2|
~B2 BA|B/c/d ed|FA B/c/d|1 FD dc:|2 FD DE||

